symbolic/22x22/apps/sigil.svg

<svg xmlns="http://www.w3.org/2000/svg" width="22" height="22" version="1.1">
 <circle style="opacity:0.2" cx="11" cy="11.5" r="10"/>
 <circle style="fill:#97302c" cx="11" cy="11" r="10"/>
 <path style="opacity:0.1;fill:#ffffff" d="m 11,1 a 10,10 0 0 0 -10,10 10,10 0 0 0 0.01075,0.291 10,10 0 0 1 9.989,-9.791 10,10 0 0 1 9.9895,9.709 10,10 0 0 0 0.0105,-0.209 10,10 0 0 0 -10,-10 z"/>
 <path style="opacity:0.2" d="M 11.275392,4.499981 C 9.689374,4.49957 8.4893339,5.188602 7.9171164,6.426653 7.7259279,6.8403095 7.6892739,6.9880715 7.6632199,7.4636415 7.6097919,8.4387805 7.9265869,9.227463 8.6143569,9.833205 9.11627,10.275255 9.306351,10.37889 11.00587,11.13066 c 2.036341,0.893936 4.053301,2.492839 3.78111,4.409943 C 14.57668,17.021795 12.528672,18.012668 11.032679,18 9.440542,17.986517 7.6888977,17.032378 7.082,15.315254 c -0.292865,-1.2052 0.5208807,-1.929349 1.5310717,-2.151044 0.6691303,-0.146847 1.7537003,0.108509 2.2047123,0.645801 0.211168,0.251565 0.286132,1.097905 0.159174,1.478298 -0.09967,-0.459182 -0.506193,-0.786911 -0.976527,-0.787252 C 9.448166,14.501057 9,14.948299 9,15.5 c 0,0.551701 0.448166,0.998943 1.000431,0.998943 1.248845,-0.07742 1.499945,-1.509515 1.499945,-2.713319 -0.07742,-1.262584 -3.3305433,-1.903229 -4.7005143,-0.425332 -0.782879,0.854132 -1.071134,1.821837 -0.500567,3.225103 0.1016565,0.250018 0.169833,0.585204 0.1904225,0.863041 0.020415,0.275453 0.057496,0.435559 0.083005,0.478514 0.036535,0.06151 0.1742615,0.06414 0.6464605,0.01073 0.5600765,-0.06335 0.6376975,0.0421 1.181597,0.185823 0.9225323,0.415305 2.9658333,0.436287 3.9644153,0.304669 1.432959,-0.203892 2.721643,-1.009127 3.236208,-2.02325 0.314919,-0.620652 0.404033,-1.032041 0.398423,-1.838874 -0.0087,-1.25674 -0.32772,-2.635712 -1.041953,-3.370029 C 14.46986,10.694284 13.99131,10.427293 12.444294,9.791256 10.577386,9.023699 9.97675,8.69355 9.40046,8.1172465 8.9521539,7.6689295 8.8523884,6.792012 9.157305,6.123748 9.320853,5.7653115 9.800883,5.3313465 10.214884,5.1677285 c 0.469247,-0.185452 1.244108,-0.230041 1.733334,-0.099504 0.823295,0.219676 1.609029,0.80987 1.921804,1.4437845 0.188867,0.3827855 0.249721,1.304184 0.131831,1.882288 -0.04176,0.204796 -0.05966,0.389304 -0.04004,0.409723 0.06993,0.07277 0.451163,-0.045945 0.695287,-0.216568 0.278527,-0.1946655 0.4912,-0.491232 0.598611,-0.833103 0.101114,-0.321824 -0.05978,-1.02577 -0.173294,-1.535127 -0.05271,-0.236529 -0.08995,-0.5937915 -0.08301,-0.7940815 0.01306,-0.376509 -0.057,-0.5045665 -0.247061,-0.44972 -0.04945,0.01427 -0.292775,0.059844 -0.540019,0.101456 -0.449186,0.075602 -0.299352,0.025335 -0.83838,-0.1964395 -0.670138,-0.2757125 -1.24846,-0.380236 -2.098555,-0.380456 z"/>
 <path style="fill:#ffffff" d="M 11.275392,3.999981 C 9.689374,3.99957 8.4893339,4.688602 7.9171164,5.926653 7.7259279,6.3403095 7.6892739,6.4880715 7.6632199,6.9636415 7.6097919,7.9387805 7.9265869,8.727463 8.6143569,9.333205 9.11627,9.775255 9.306351,9.87889 11.00587,10.63066 c 2.036341,0.893936 4.053301,2.492839 3.78111,4.409943 C 14.57668,16.521795 12.528672,17.512668 11.032679,17.5 9.440542,17.486517 7.6888977,16.532378 7.082,14.815254 c -0.292865,-1.2052 0.5208807,-1.929349 1.5310717,-2.151044 0.6691303,-0.146847 1.7537003,0.108509 2.2047123,0.645801 0.211168,0.251565 0.286132,1.097905 0.159174,1.478298 -0.09967,-0.459182 -0.506193,-0.786911 -0.976527,-0.787252 C 9.448166,14.001057 9,14.448299 9,15 c 0,0.551701 0.448166,0.998943 1.000431,0.998943 1.248845,-0.07742 1.499945,-1.509515 1.499945,-2.713319 -0.07742,-1.262584 -3.3305433,-1.903229 -4.7005143,-0.425332 -0.782879,0.854132 -1.071134,1.821837 -0.500567,3.225103 0.1016565,0.250018 0.169833,0.585204 0.1904225,0.863041 0.020415,0.275453 0.057496,0.435559 0.083005,0.478514 0.036535,0.06151 0.1742615,0.06414 0.6464605,0.01073 0.5600765,-0.06335 0.6376975,0.0421 1.181597,0.185823 0.9225323,0.415305 2.9658333,0.436287 3.9644153,0.304669 1.432959,-0.203892 2.721643,-1.009127 3.236208,-2.02325 0.314919,-0.620652 0.404033,-1.032041 0.398423,-1.838874 -0.0087,-1.25674 -0.32772,-2.635712 -1.041953,-3.370029 C 14.46986,10.194284 13.99131,9.927293 12.444294,9.291256 10.577386,8.523699 9.97675,8.19355 9.40046,7.6172465 8.9521539,7.1689295 8.8523884,6.292012 9.157305,5.623748 9.320853,5.2653115 9.800883,4.8313465 10.214884,4.6677285 c 0.469247,-0.185452 1.244108,-0.230041 1.733334,-0.099504 0.823295,0.219676 1.609029,0.80987 1.921804,1.4437845 0.188867,0.3827855 0.249721,1.304184 0.131831,1.882288 -0.04176,0.204796 -0.05966,0.389304 -0.04004,0.409723 0.06993,0.072769 0.451163,-0.045945 0.695287,-0.216568 0.278527,-0.1946655 0.4912,-0.491232 0.598611,-0.833103 0.101114,-0.321824 -0.05978,-1.02577 -0.173294,-1.535127 -0.05271,-0.236529 -0.08995,-0.5937915 -0.08301,-0.7940815 0.01306,-0.376509 -0.057,-0.5045665 -0.247061,-0.44972 -0.04945,0.01427 -0.292775,0.059844 -0.540019,0.101456 -0.449186,0.075602 -0.299352,0.025335 -0.83838,-0.1964395 -0.670138,-0.2757125 -1.24846,-0.380236 -2.098555,-0.380456 z"/>
</svg>

<svg xmlns="http://www.w3.org/2000/svg" width="22" height="22"><circle style="opacity:.2" cx="11" cy="11.5" r="10"/><circle style="fill:#97302c" cx="11" cy="11" r="10"/><path style="opacity:.1;fill:#fff" d="M11 1A10 10 0 0 0 1 11a10 10 0 0 0 .01.291A10 10 0 0 1 11 1.5a10 10 0 0 1 9.99 9.709A10 10 0 0 0 21 11 10 10 0 0 0 11 1z"/><path style="opacity:.2" d="M11.275 4.5c-1.586 0-2.786.689-3.358 1.927-.191.413-.228.561-.254 1.037-.053.975.264 1.763.951 2.37.502.441.692.545 2.392 1.297 2.036.894 4.053 2.492 3.781 4.41-.21 1.48-2.258 2.472-3.754 2.459-1.592-.013-3.344-.968-3.951-2.685-.293-1.205.52-1.93 1.531-2.15.67-.148 1.754.108 2.205.645.211.252.286 1.098.159 1.478a1 1 0 1 0-.977 1.21c1.25-.076 1.5-1.509 1.5-2.712-.077-1.263-3.33-1.904-4.7-.426-.783.854-1.071 1.822-.5 3.225.101.25.17.586.19.863.02.276.057.436.083.479.036.061.174.064.646.01.56-.063.638.043 1.182.187.922.415 2.966.436 3.964.304 1.433-.204 2.722-1.009 3.236-2.023.315-.62.404-1.032.399-1.839-.009-1.257-.328-2.636-1.042-3.37-.488-.502-.967-.769-2.514-1.405-1.867-.767-2.467-1.097-3.044-1.674-.448-.448-.548-1.325-.243-1.993.164-.359.644-.793 1.058-.956.47-.186 1.244-.23 1.733-.1.824.22 1.61.81 1.922 1.444.189.383.25 1.304.132 1.882-.042.205-.06.39-.04.41.07.073.451-.046.695-.217.279-.194.491-.49.599-.833.1-.321-.06-1.025-.174-1.535A3.829 3.829 0 0 1 15 5.425c.013-.376-.057-.504-.247-.45-.05.015-.292.06-.54.102-.449.075-.299.025-.838-.197-.67-.275-1.249-.38-2.099-.38z"/><path style="fill:#fff" d="M11.275 4C9.69 4 8.49 4.689 7.917 5.927c-.191.413-.228.561-.254 1.037-.053.975.264 1.763.951 2.37.502.441.692.545 2.392 1.297 2.036.894 4.053 2.492 3.781 4.41-.21 1.48-2.258 2.472-3.754 2.459-1.592-.013-3.344-.968-3.951-2.685-.293-1.205.52-1.93 1.531-2.15.67-.148 1.754.108 2.205.645.211.252.286 1.098.159 1.478a1 1 0 1 0-.977 1.21c1.25-.076 1.5-1.509 1.5-2.712-.077-1.263-3.33-1.904-4.7-.426-.783.854-1.071 1.822-.5 3.225.101.25.17.586.19.863.02.276.057.436.083.479.036.061.174.064.646.01.56-.063.638.043 1.182.187.922.415 2.966.436 3.964.304 1.433-.204 2.722-1.009 3.236-2.023.315-.62.404-1.032.399-1.839-.009-1.257-.328-2.636-1.042-3.37-.488-.502-.967-.769-2.514-1.405-1.867-.767-2.467-1.097-3.044-1.674-.448-.448-.548-1.325-.243-1.993.164-.359.644-.793 1.058-.956.47-.186 1.244-.23 1.733-.1.824.22 1.61.81 1.922 1.444.189.383.25 1.304.132 1.882-.042.205-.06.39-.04.41.07.073.451-.046.695-.217.279-.194.491-.49.599-.833.1-.321-.06-1.025-.174-1.535A3.829 3.829 0 0 1 15 4.925c.013-.376-.057-.504-.247-.45-.05.015-.292.06-.54.102-.449.075-.299.025-.838-.197-.67-.275-1.249-.38-2.099-.38z"/></svg>
